X:0538
T:The new Spa Dance.
M:2/4
L:1/16
Q:1/4=104
P:ABA
N:Aird prints the repeat as a da capo
I: :: || DC
Z:Jack Campin * www.campin.me.uk * 2009
K:G
P:A
B3c dcBA|G2G2 A4|B2BG c2cA|B2BG  A4 |
B3c dcBA|G2G2 A4|B2G2`c2A2|G2F2  G4::
P:B
B3c`d2e2|f2g2 d4|g2gf e2ed|c2cB  A4 |
B3c`d2e2|f2g2 d4|g2gf e2d2|Bd^ce d4|]

